X:1
T:Title
%%score { 1 | 2 }
L:1/8
M:6/8
K:G
V:1 treble nm="Grand Piano"
V:2 bass 
V:1
 z3 z2[Q:1/4=84] [B,D]/[B,D]/ | [B,G]>[DG][DG] AGA | B [B,G]2- [B,G]2 [B,D] | %3
 [CE]>[CE][CE] [EG][DF][CE] |[M:5/8] [B,D]-[B,D]- [B,D]3 |[M:1/8] [B,D]/[B,D]/ | %6
[M:3/4] [DG]>[DG] [DG]A GA | Bd- d3 B | A>B A[EG] [DF][^CE] |[M:5/8] D-D- D3 |[M:1/8] D | %11
[M:3/4] c>c cA Bc | BG- G3 B | d>d dd BG |[M:5/8] [FA]-[FA]- [FA]3 |[M:1/8] D | %16
[M:3/4] G>[DG] [DG]A GA | Bd- d3 [EGc] | [DGB]>[DGB] [DGB][DGB] [B,G][CFA] |[M:5/8] G-G- G3 | %20
[M:1/8] B/c/ |[M:3/4] d3 B2 G/A/ | B3 G2 [EA] | G>G GF GA |[M:5/8] [B,DG]-[B,DG]- [B,DG]3 |] %25
V:2
 z3 z2 [G,,G,]/[G,,G,]/ | [G,,G,]>[B,,G,][B,,G,] [D,F,D][D,E,D][D,F,D] | %2
 [G,D] [G,,G,]2- [G,,G,]2 [G,,G,] | [C,G,]2 [C,G,] [C,C][C,G,][C,G,] | %4
[M:5/8] [G,,G,]-[G,,G,]- [G,,G,]3 |[M:1/8] [G,,G,]/[G,,G,]/ | %6
[M:3/4] [B,,G,]>[B,,G,] [B,,G,][D,F,D] [D,E,D][D,F,D] | [G,D][G,B,G]- [G,B,G]3 [G,DG] | %8
 [A,DF]>[A,DG] [A,DF][K:bass][A,,A,] [A,,A,][A,,G,] |[M:5/8] [D,F,]-[D,F,]- [D,F,]3 | %10
[M:1/8] [D,F,] |[M:3/4] [D,A,D]>[D,A,D] [D,A,D][D,F,D] [D,G,D][D,A,D] | %12
 [G,D][G,B,D]- [G,B,D]3 [G,DG] | [G,B,G]>[G,B,G] [G,B,G][G,B,G] [G,DG][K:bass][E,^C] | %14
[M:5/8] [D,D]-[D,D]- [D,D]3 |[M:1/8] [F,C] |[M:3/4] [G,B,D]>[B,,G,] [B,,G,][D,F,D] [D,E,D][D,F,D] | %17
 [G,D][G,B,G]- [G,B,G]3[K:bass] C, | D,>D, D,D, D,D, |[M:5/8] [G,B,]-[G,B,]- [G,B,]3 | %20
[M:1/8][K:treble] [G,D]/[G,A,D]/ |[M:3/4] [G,B,G]3 [G,DG]2 [G,B,]/[G,CG]/ | %22
 [G,DG]3[K:bass] [G,B,D]2 [C,C] | [D,B,D]>[D,B,D] [D,B,D][D,A,D] [D,B,D][D,CD] | %24
[M:5/8] G,,-G,,- G,,3 |] %25

